src/assets/favicon.svg

<svg xmlns="http://www.w3.org/2000/svg" xmlns:xlink="http://www.w3.org/1999/xlink" viewBox="-1 -1 160.3 163.83" width="200" height="204.52"><defs><path d="M116.91 71.18C112.97 54.4 97.9 41.9 79.92 41.9c-21 0-38.02 17.02-38.02 38.01 0 21 17.02 38.02 38.02 38.02 17.98 0 33.05-12.5 36.99-29.28h39.39V71.18h-39.39Z" id="a"/><path d="M79.92 23.69c22.6 0 42.11 13.41 51.04 32.68h25.34C146.25 23.73 115.86 0 79.92 0 35.78 0 0 35.78 0 79.91c0 44.14 35.78 79.92 79.92 79.92 35.94 0 66.33-23.73 76.38-56.37h-25.34c-8.93 19.27-28.44 32.68-51.04 32.68-31.01 0-56.23-25.22-56.23-56.23 0-31 25.22-56.22 56.23-56.22Z" id="b"/></defs><use xlink:href="#a" fill="#f46400"/><use xlink:href="#a" fill-opacity="0" stroke="#000" stroke-opacity="0"/><use xlink:href="#b" fill="#f46400"/><use xlink:href="#b" fill-opacity="0" stroke="#000" stroke-opacity="0"/></svg>

<?xml version="1.0" encoding="UTF-8" standalone="no"?>
<!DOCTYPE svg PUBLIC "-//W3C//DTD SVG 1.1//EN" "http://www.w3.org/Graphics/SVG/1.1/DTD/svg11.dtd">
<svg version="1.1" xmlns="http://www.w3.org/2000/svg" xmlns:xlink="http://www.w3.org/1999/xlink" preserveAspectRatio="xMidYMid meet" viewBox="-0.9999999999999947 -1 160.3 163.83000000000007" width="200" height="204.52"><defs><path d="M116.91 71.18C112.97 54.4 97.9 41.9 79.92 41.9C58.92 41.9 41.9 58.92 41.9 79.91C41.9 100.91 58.92 117.93 79.92 117.93C97.9 117.93 112.97 105.43 116.91 88.65C117.48 88.65 130.6 88.65 156.3 88.65C156.3 87.49 156.3 81.66 156.3 71.18C130.87 71.18 117.74 71.18 116.91 71.18Z" id="h1BC2krFzl"></path><path d="M79.92 23.69C102.52 23.69 122.03 37.1 130.96 56.37C133.49 56.37 153.77 56.37 156.3 56.37C146.25 23.73 115.86 0 79.92 0C35.78 0 0 35.78 0 79.91C0 124.05 35.78 159.83 79.92 159.83C115.86 159.83 146.25 136.1 156.3 103.46C153.77 103.46 133.49 103.46 130.96 103.46C122.03 122.73 102.52 136.14 79.92 136.14C48.91 136.14 23.69 110.92 23.69 79.91C23.69 48.91 48.91 23.69 79.92 23.69Z" id="e5uhgOlu1q"></path></defs><g><g><use xlink:href="#h1BC2krFzl" opacity="1" fill="#e36d1d" fill-opacity="1"></use><g><use xlink:href="#h1BC2krFzl" opacity="1" fill-opacity="0" stroke="#000000" stroke-width="1" stroke-opacity="0"></use></g></g><g><use xlink:href="#e5uhgOlu1q" opacity="1" fill="#e36d1d" fill-opacity="1"></use><g><use xlink:href="#e5uhgOlu1q" opacity="1" fill-opacity="0" stroke="#000000" stroke-width="1" stroke-opacity="0"></use></g></g></g></svg>
